X:258
T:Trip to Blenheim. PFD2.258, A
B:Playford’s Dancing Master, Vol 2, 1713-28
Z:vmp.Robert Watkins 2015 www.village-music-project.org.uk
M:6/4
L:1/4
Q:3/4=90
K:Bb
B|B3F2B|BFDB,2B|B>cdG>AB|c2cc>dc|
d2GA2B|c>BAB2c|d>ef=e>fg|f3-f2||
f|f>gff>ga|b2dd2f|g2fe2d|c3-c2f|
d>cBg2f|d>cBf2F|G>ABA>Bc|B3-B2|]
W:Longways for as many as will.
W:Note: Each Strain is to be Play'd twice over.
W:The two first Cu. lead to the Wall; and back again, then Back to Back with your Partners.|
W:Then the first Cu. lead down the Middle, and cast up behind the 3d Cu. into the 2d Cu. Place,
W:then turn Hands:| Then the first Man change Places with the 2d Wo. and the 2d Man with the
W:first Wo. then the first Cu. go the half Figure into their own Places.| Then cross over and go
W:the half Figure into the 2d Cu. Place.:|

